Dominus_Dark_Funeral/22/apps/mkvtoolnix-gui.svg

<svg xmlns="http://www.w3.org/2000/svg" width="24" height="24"><defs><linearGradient id="c"><stop offset="0" stop-color="#fd5"/><stop offset="1" stop-color="#c8ab37"/></linearGradient><linearGradient id="b"><stop offset="0" stop-color="#a02c2c"/><stop offset="1" stop-color="#782121"/></linearGradient><linearGradient id="a"><stop offset="0" stop-color="#054"/><stop offset="1" stop-color="#165044"/></linearGradient></defs><path d="M11.5 3.39a9.24 6.86 59 0 0-4.03 12.19 9.24 6.86 59 0 0 .35.52c-1.11.24-2.13.4-2.97.41-1.1.03-2.64-.2-3.07-1.21-.4-.9 1.05-2.72 1.07-2.75-.02.02-2 1.92-1.84 3.1.22 1.66 2.3 1.92 3.93 1.9.81 0 2.07-.22 3.53-.58a9.24 6.86 59 0 0 12-5.5c1.54-1.28 2.54-2.69 2.53-4.17-.01-1.57-2.5-1.89-3.11-1.87-.09 0-.14 0-.14.02 0 0 2.4.6 2.35 1.76-.05 1.06-.8 2.14-1.97 3.19a9.24 6.86 59 0 0-.9-1.89 9.24 6.86 59 0 0-.29-.43 2.5 2.5 0 0 0 .06-.53 2.5 2.5 0 0 0-2.89-2.47 9.24 6.86 59 0 0-4.62-1.7zm.12.6a8.59 6.37 59 0 1 3.86 1.28A2.5 2.5 0 0 0 14 7.55a2.5 2.5 0 0 0 4.74 1.1 8.59 6.37 59 0 1 .07.11 8.59 6.37 59 0 1 .93 1.97 17.66 17.66 0 0 1-1.85 1.32 5.01 5.01 0 0 0-.56-1.5 3.11 3.11 0 0 1-3.89-2.48 5 5 0 0 0-4.58 7.78l-.54.13a8.59 6.37 59 0 1-.43-.65 8.59 6.37 59 0 1 3.73-11.34zm.48 6.7a3.41 3.41 0 0 1 3.35 2.7 35.59 35.59 0 0 1-3.6 1.52 1.5 1.5 0 0 0-2.85.55 3.39 3.39 0 0 1 3.1-4.77zm7.96 1.11a8.59 6.37 59 0 1-11.08 5.03l.55-.14a1.5 1.5 0 0 0 .23.16 5 5 0 0 0 8.23-3.67c.75-.43 1.45-.9 2.07-1.38zm-17.2.74zm12.63 1.95a3.43 3.43 0 0 1-3.39 3 3.37 3.37 0 0 1-1.68-.45 1.5 1.5 0 0 0 1.53-1.13 39.98 39.98 0 0 0 3.54-1.41z" stroke-width="2.31" fill="#e6e6e6"/></svg>

<?xml version="1.0" encoding="UTF-8" standalone="no"?>
<svg
   xmlns:dc="http://purl.org/dc/elements/1.1/"
   xmlns:cc="http://creativecommons.org/ns#"
   xmlns:rdf="http://www.w3.org/1999/02/22-rdf-syntax-ns#"
   xmlns:svg="http://www.w3.org/2000/svg"
   xmlns="http://www.w3.org/2000/svg"
   xmlns:sodipodi="http://sodipodi.sourceforge.net/DTD/sodipodi-0.dtd"
   xmlns:inkscape="http://www.inkscape.org/namespaces/inkscape"
   width="24"
   height="24"
   version="1.1"
   id="svg21"
   sodipodi:docname="mkvtoolnix-gui.svg"
   inkscape:version="0.92.4 (5da689c313, 2019-01-14)">
  <metadata
     id="metadata25">
    <rdf:RDF>
      <cc:Work
         rdf:about="">
        <dc:format>image/svg+xml</dc:format>
        <dc:type
           rdf:resource="http://purl.org/dc/dcmitype/StillImage" />
        <dc:title></dc:title>
      </cc:Work>
    </rdf:RDF>
  </metadata>
  <sodipodi:namedview
     pagecolor="#ffffff"
     bordercolor="#666666"
     borderopacity="1"
     objecttolerance="10"
     gridtolerance="10"
     guidetolerance="10"
     inkscape:pageopacity="0"
     inkscape:pageshadow="2"
     inkscape:window-width="1138"
     inkscape:window-height="480"
     id="namedview23"
     showgrid="false"
     inkscape:zoom="9.8333333"
     inkscape:cx="1.0677966"
     inkscape:cy="12"
     inkscape:window-x="0"
     inkscape:window-y="25"
     inkscape:window-maximized="0"
     inkscape:current-layer="svg21" />
  <defs
     id="defs17">
    <linearGradient
       id="c">
      <stop
         offset="0"
         stop-color="#fd5"
         id="stop2" />
      <stop
         offset="1"
         stop-color="#c8ab37"
         id="stop4" />
    </linearGradient>
    <linearGradient
       id="b">
      <stop
         offset="0"
         stop-color="#a02c2c"
         id="stop7" />
      <stop
         offset="1"
         stop-color="#782121"
         id="stop9" />
    </linearGradient>
    <linearGradient
       id="a">
      <stop
         offset="0"
         stop-color="#054"
         id="stop12" />
      <stop
         offset="1"
         stop-color="#165044"
         id="stop14" />
    </linearGradient>
  </defs>
  <path
     d="M 11.5,3.39 A 9.24,6.86 59 0 0 7.47,15.58 9.24,6.86 59 0 0 7.82,16.1 c -1.11,0.24 -2.13,0.4 -2.97,0.41 -1.1,0.03 -2.64,-0.2 -3.07,-1.21 -0.4,-0.9 1.05,-2.72 1.07,-2.75 -0.02,0.02 -2,1.92 -1.84,3.1 0.22,1.66 2.3,1.92 3.93,1.9 0.81,0 2.07,-0.22 3.53,-0.58 a 9.24,6.86 59 0 0 12,-5.5 C 22.01,10.19 23.01,8.78 23,7.3 22.99,5.73 20.5,5.41 19.89,5.43 c -0.09,0 -0.14,0 -0.14,0.02 0,0 2.4,0.6 2.35,1.76 -0.05,1.06 -0.8,2.14 -1.97,3.19 A 9.24,6.86 59 0 0 19.23,8.51 9.24,6.86 59 0 0 18.94,8.08 2.5,2.5 0 0 0 19,7.55 2.5,2.5 0 0 0 16.11,5.08 9.24,6.86 59 0 0 11.49,3.38 Z m 0.12,0.6 a 8.59,6.37 59 0 1 3.86,1.28 2.5,2.5 0 0 0 -1.48,2.28 2.5,2.5 0 0 0 4.74,1.1 8.59,6.37 59 0 1 0.07,0.11 8.59,6.37 59 0 1 0.93,1.97 17.66,17.66 0 0 1 -1.85,1.32 5.01,5.01 0 0 0 -0.56,-1.5 3.11,3.11 0 0 1 -3.89,-2.48 5,5 0 0 0 -4.58,7.78 L 8.32,15.98 A 8.59,6.37 59 0 1 7.89,15.33 8.59,6.37 59 0 1 11.62,3.99 Z m 0.48,6.7 a 3.41,3.41 0 0 1 3.35,2.7 35.59,35.59 0 0 1 -3.6,1.52 1.5,1.5 0 0 0 -2.85,0.55 3.39,3.39 0 0 1 3.1,-4.77 z m 7.96,1.11 A 8.59,6.37 59 0 1 8.98,16.83 l 0.55,-0.14 a 1.5,1.5 0 0 0 0.23,0.16 5,5 0 0 0 8.23,-3.67 c 0.75,-0.43 1.45,-0.9 2.07,-1.38 z m -17.2,0.74 z m 12.63,1.95 a 3.43,3.43 0 0 1 -3.39,3 3.37,3.37 0 0 1 -1.68,-0.45 1.5,1.5 0 0 0 1.53,-1.13 39.98,39.98 0 0 0 3.54,-1.41 z"
     id="path19"
     inkscape:connector-curvature="0"
     style="fill:#e6e6e6;stroke-width:2.30999994" />
</svg>
